lib/flags/m/496.svg

<svg xmlns="http://www.w3.org/2000/svg" fill="none" viewBox="0 0 20 15"><mask id="496_svg__a" width="20" height="15" x="0" y="0" mask-type="alpha" maskUnits="userSpaceOnUse"><path fill="#fff" d="M0 0H20V15H0z"/></mask><g fill-rule="evenodd" clip-rule="evenodd" mask="url(#496_svg__a)"><path fill="#4C67E8" d="M6 0H14V15H6V0Z"/><path fill="#C51918" d="M13 0H20V15H13V0zM0 0H8V15H0V0z"/><path fill="#F8D000" d="M3.75867 4.3027C3.12533 4.3027 3.20846 3.68561 3.20846 3.68561L3.50875 3.03711V3.29834V3.68561C3.50875 3.76902 3.62256 3.6022 3.62256 3.40138C3.62256 3.20056 3.75867 2.89985 3.75867 2.89985C3.75867 2.89985 3.76413 2.79929 3.7679 2.70001C3.78968 2.75109 3.83335 2.79532 3.89965 2.86247C3.91121 2.87418 3.92346 2.88658 3.9364 2.89985C4.01464 2.98003 4.00409 3.19244 3.99496 3.37622C3.98669 3.54265 3.97958 3.68561 4.04066 3.68561C4.16918 3.68561 4.15963 3.11138 4.15963 3.11138L4.37534 3.68561C4.37534 3.68561 4.39201 4.3027 3.75867 4.3027ZM3.75867 2.5404C3.77479 2.44617 3.77275 2.57204 3.7679 2.70001C3.74971 2.65735 3.74678 2.60993 3.75867 2.5404ZM4.71154 5.42743C4.71154 5.92911 4.29181 6.33581 3.77404 6.33581C3.25627 6.33581 2.83654 5.92911 2.83654 5.42743C2.83654 4.92575 3.25627 4.51905 3.77404 4.51905C4.29181 4.51905 4.71154 4.92575 4.71154 5.42743ZM2.35577 7.12773H1.25V12.4848H2.35577V7.12773ZM6.25 7.12773H5.14423V12.4848H6.25V7.12773ZM2.64423 7.17431L3.72218 7.84171L4.93711 7.17431H2.64423ZM3.72218 12.5001L2.64423 11.8327H4.93711L3.72218 12.5001ZM2.64423 8.0594H4.90385V8.47865H2.64423V8.0594ZM4.90385 11.1805H2.64423V11.5997H4.90385V11.1805ZM3.79808 10.9476C4.43533 10.9476 4.95192 10.447 4.95192 9.82957C4.95192 9.21211 4.43533 8.71156 3.79808 8.71156C3.16083 8.71156 2.64423 9.21211 2.64423 9.82957C2.64423 10.447 3.16083 10.9476 3.79808 10.9476ZM2.502 5.76018C2.502 5.76018 2.54085 6.92727 3.69117 6.92727C4.84149 6.92727 5.02715 5.76018 5.02715 5.76018C5.02715 5.76018 4.5819 6.4751 3.76457 6.4751C2.94725 6.4751 2.502 5.76018 2.502 5.76018Z"/></g></svg>

<svg xmlns="http://www.w3.org/2000/svg" fill="none" viewBox="0 0 20 15"><mask id="496_svg__a" width="20" height="15" x="0" y="0" maskUnits="userSpaceOnUse"><path fill="#fff" d="M0 0h20v15H0z"/></mask><g fill-rule="evenodd" clip-rule="evenodd" mask="url(#496_svg__a)"><path fill="#4C67E8" d="M6 0h8v15H6V0z"/><path fill="#C51918" d="M13 0h7v15h-7V0zM0 0h8v15H0V0z"/><path fill="#F8D000" d="M3.759 4.303c-.634 0-.55-.617-.55-.617l.3-.649v.649c0 .083.114-.084.114-.285 0-.2.136-.501.136-.501l.009-.2a.588.588 0 00.132.162l.036.038c.079.08.068.292.059.476-.008.167-.015.31.046.31.128 0 .119-.575.119-.575l.215.575s.017.617-.616.617zm0-1.763c.016-.094.014.032.009.16a.272.272 0 01-.01-.16zm.953 2.887c0 .502-.42.909-.938.909s-.937-.407-.937-.909c0-.501.42-.908.937-.908.518 0 .938.407.938.908zm-2.356 1.7H1.25v5.358h1.106V7.128zm3.894 0H5.144v5.358H6.25V7.128zm-3.606.047l1.078.668 1.215-.668H2.644zM3.722 12.5l-1.078-.667h2.293l-1.215.667zM2.644 8.06h2.26v.419h-2.26v-.42zm2.26 3.12h-2.26v.42h2.26v-.42zm-1.106-.232c.637 0 1.154-.501 1.154-1.119 0-.617-.517-1.118-1.154-1.118-.637 0-1.154.501-1.154 1.118 0 .618.517 1.118 1.154 1.118zM2.502 5.76s.039 1.167 1.19 1.167c1.15 0 1.335-1.167 1.335-1.167s-.445.715-1.262.715c-.818 0-1.263-.715-1.263-.715z"/></g></svg>
